status/symbolic/rotation-locked-symbolic.svg

<svg enable-background="new" height="16" width="16.001" xmlns="http://www.w3.org/2000/svg">
  <g fill="#bebebe">
    <path d="m11.253962 1.8374491a1.3220229 1.3220229 0 0 0 -1.322265 1.3222657v.2636718a.52880915.52880915 0 0 0 -.529297.5292969v2.1152344a.52880915.52880915 0 0 0 .529297.5292968h2.644531a.52880915.52880915 0 0 0 .529297-.5292968v-2.1152344a.52880915.52880915 0 0 0 -.529297-.5292969v-.2636718a1.3220229 1.3220229 0 0 0 -1.322266-1.3222657zm0 .4238281c.49708 0 .898438.4013575.898438.8984376v.2636718h-1.796875v-.2636718c0-.49708.401357-.8984376.898437-.8984376z" />
    <path d="m13.766 8.59024-1.35904-1.35904-.74562.74562 1.17925 1.17396-2.99835 2.99835-5.9914-5.99141 2.99834-2.99835 1.1105 1.11579.74562-.74562-1.29558-1.29558c-.31199-.312-.81437-.312-1.12108 0l-3.36322 3.36322c-.312.312-.312.81437 0 1.12107l6.35628 6.35629c.312.312.81437.312 1.12108 0l3.36322-3.36322c.312-.312.312-.81437 0-1.12108zm-7.8158 4.08773c-1.7292-.824929-2.96662-2.50655-3.15698-4.49487h-.79322c.26441 3.257461 2.99306 5.8169 6.31927 5.8169l.34901-.0159-2.01476-2.02005-.70332.71389" opacity=".35" />
  </g>
</svg>

<?xml version="1.0" encoding="UTF-8" standalone="no"?>
<!-- Created with Inkscape (http://www.inkscape.org/) -->

<svg
   xmlns:dc="http://purl.org/dc/elements/1.1/"
   xmlns:cc="http://creativecommons.org/ns#"
   xmlns:rdf="http://www.w3.org/1999/02/22-rdf-syntax-ns#"
   xmlns:svg="http://www.w3.org/2000/svg"
   xmlns="http://www.w3.org/2000/svg"
   xmlns:sodipodi="http://sodipodi.sourceforge.net/DTD/sodipodi-0.dtd"
   xmlns:inkscape="http://www.inkscape.org/namespaces/inkscape"
   id="svg7384"
   style="enable-background:new"
   height="16"
   width="16.001"
   version="1.1"
   inkscape:version="0.91 r13725"
   sodipodi:docname="rotation-locked-symbolic.svg">
  <sodipodi:namedview
     pagecolor="#ffffff"
     bordercolor="#666666"
     borderopacity="1"
     objecttolerance="10"
     gridtolerance="10"
     guidetolerance="10"
     inkscape:pageopacity="0"
     inkscape:pageshadow="2"
     inkscape:window-width="640"
     inkscape:window-height="480"
     id="namedview4157"
     showgrid="false"
     inkscape:zoom="29.123961"
     inkscape:cx="-0.9355413"
     inkscape:cy="11.776983"
     inkscape:current-layer="svg7384" />
  <metadata
     id="metadata90">
    <rdf:RDF>
      <cc:Work
         rdf:about="">
        <dc:format>image/svg+xml</dc:format>
        <dc:type
           rdf:resource="http://purl.org/dc/dcmitype/StillImage" />
        <dc:title>Paper Symbolic Icon Theme</dc:title>
      </cc:Work>
    </rdf:RDF>
  </metadata>
  <title
     id="title8473">Paper Symbolic Icon Theme</title>
  <defs
     id="defs7386">
    <filter
       id="filter7554"
       style="color-interpolation-filters:sRGB">
      <feBlend
         id="feBlend7556"
         in2="BackgroundImage"
         mode="darken" />
    </filter>
  </defs>
  <g
     id="g4787">
    <path
       inkscape:connector-curvature="0"
       id="path4779"
       d="M 11.253962,1.8374491 A 1.3220229,1.3220229 0 0 0 9.931697,3.1597148 l 0,0.2636718 A 0.52880915,0.52880915 0 0 0 9.4024,3.9526835 l 0,2.1152344 a 0.52880915,0.52880915 0 0 0 0.529297,0.5292968 l 2.644531,0 a 0.52880915,0.52880915 0 0 0 0.529297,-0.5292968 l 0,-2.1152344 A 0.52880915,0.52880915 0 0 0 12.576228,3.4233866 l 0,-0.2636718 A 1.3220229,1.3220229 0 0 0 11.253962,1.8374491 Z m 0,0.4238281 c 0.49708,0 0.898438,0.4013575 0.898438,0.8984376 l 0,0.2636718 -1.796875,0 0,-0.2636718 c 0,-0.49708 0.401357,-0.8984376 0.898437,-0.8984376 z"
       style="display:inline;fill:#bebebe;fill-opacity:1;enable-background:new" />
    <path
       d="M 13.766,8.59024 12.40696,7.2312 11.66134,7.97682 12.84059,9.15078 9.84224,12.14913 3.85084,6.15772 6.84918,3.15937 7.95968,4.27516 8.7053,3.52954 7.40972,2.23396 c -0.31199,-0.312 -0.81437,-0.312 -1.12108,0 L 2.92542,5.59718 c -0.312,0.312 -0.312,0.81437 0,1.12107 l 6.35628,6.35629 c 0.312,0.312 0.81437,0.312 1.12108,0 L 13.766,9.71132 c 0.312,-0.312 0.312,-0.81437 0,-1.12108 z M 5.9502,12.67797 C 4.221,11.853041 2.98358,10.17142 2.79322,8.1831 L 2,8.1831 C 2.26441,11.440561 4.99306,14 8.31927,14 L 8.66828,13.9841 6.65352,11.96405 5.9502,12.67794"
       style="display:inline;opacity:0.35;fill:#bebebe;fill-opacity:1;enable-background:new"
       id="path4701-3" />
  </g>
</svg>
